build/img/svg/menu.svg

<?xml version="1.0" encoding="UTF-8"?>
<svg xmlns="http://www.w3.org/2000/svg" xmlns:xlink="http://www.w3.org/1999/xlink" width="96pt" height="96pt" viewBox="0 0 96 96" version="1.1">
<g id="surface1624">
<path style=" stroke:none;fill-rule:nonzero;fill:rgb(80%,80%,80%);fill-opacity:1;" d="M 0 48 C 0 21.492188 21.492188 0 48 0 C 74.507812 0 96 21.492188 96 48 C 96 74.507812 74.507812 96 48 96 C 21.492188 96 0 74.507812 0 48 Z M 48 92.160156 C 72.390625 92.160156 92.160156 72.390625 92.160156 48 C 92.160156 23.609375 72.390625 3.839844 48 3.839844 C 23.609375 3.839844 3.839844 23.609375 3.839844 48 C 3.839844 72.390625 23.609375 92.160156 48 92.160156 Z M 48 92.160156 "/>
<path style=" stroke:none;fill-rule:nonzero;fill:rgb(75.686275%,75.294118%,75.294118%);fill-opacity:1;" d="M 22.300781 28.011719 C 21.269531 27.996094 20.3125 28.539062 19.792969 29.425781 C 19.273438 30.316406 19.273438 31.417969 19.792969 32.304688 C 20.3125 33.195312 21.269531 33.738281 22.300781 33.722656 L 73.699219 33.722656 C 74.730469 33.738281 75.6875 33.195312 76.207031 32.304688 C 76.726562 31.417969 76.726562 30.316406 76.207031 29.425781 C 75.6875 28.539062 74.730469 27.996094 73.699219 28.011719 Z M 22.300781 45.144531 C 21.269531 45.128906 20.3125 45.671875 19.792969 46.558594 C 19.273438 47.449219 19.273438 48.550781 19.792969 49.441406 C 20.3125 50.328125 21.269531 50.871094 22.300781 50.855469 L 73.699219 50.855469 C 74.730469 50.871094 75.6875 50.328125 76.207031 49.441406 C 76.726562 48.550781 76.726562 47.449219 76.207031 46.558594 C 75.6875 45.671875 74.730469 45.128906 73.699219 45.144531 Z M 22.300781 62.277344 C 21.269531 62.261719 20.3125 62.804688 19.792969 63.695312 C 19.273438 64.582031 19.273438 65.683594 19.792969 66.574219 C 20.3125 67.460938 21.269531 68.003906 22.300781 67.988281 L 73.699219 67.988281 C 74.730469 68.003906 75.6875 67.460938 76.207031 66.574219 C 76.726562 65.683594 76.726562 64.582031 76.207031 63.695312 C 75.6875 62.804688 74.730469 62.261719 73.699219 62.277344 Z M 22.300781 62.277344 "/>
</g>
</svg>

<svg xmlns="http://www.w3.org/2000/svg" width="128" height="128" viewBox="0 0 96 96"><path style="stroke:none;fill-rule:nonzero;fill:#ccc;fill-opacity:1" d="M0 48C0 21.492 21.492 0 48 0s48 21.492 48 48-21.492 48-48 48S0 74.508 0 48Zm48 44.16c24.39 0 44.16-19.77 44.16-44.16C92.16 23.61 72.39 3.84 48 3.84 23.61 3.84 3.84 23.61 3.84 48c0 24.39 19.77 44.16 44.16 44.16Zm0 0"/><path style="stroke:none;fill-rule:nonzero;fill:#c1c0c0;fill-opacity:1" d="M22.3 28.012a2.854 2.854 0 0 0-2.508 4.293 2.853 2.853 0 0 0 2.509 1.418h51.398a2.853 2.853 0 0 0 2.508-1.418 2.854 2.854 0 0 0-2.508-4.293Zm0 17.133a2.858 2.858 0 0 0-2.507 4.296 2.858 2.858 0 0 0 2.508 1.414h51.398a2.858 2.858 0 0 0 2.508-4.296 2.858 2.858 0 0 0-2.508-1.414Zm0 17.132a2.853 2.853 0 0 0-2.507 1.418 2.854 2.854 0 0 0 2.508 4.293h51.398a2.854 2.854 0 0 0 2.508-4.293 2.853 2.853 0 0 0-2.508-1.418Zm0 0"/></svg>
